public/assets/images/lang/globe_lang_grey.svg

<?xml version="1.0" encoding="UTF-8" standalone="no"?>
<svg
   height="48"
   viewBox="0 0 48 48"
   width="48"
   version="1.1"
   id="svg2"
   xmlns="http://www.w3.org/2000/svg"
   xmlns:svg="http://www.w3.org/2000/svg">
  <defs
     id="defs2" />
  <path
     d="M 0,0 H 48 V 48 H 0 Z"
     fill="none"
     id="path1" />
  <path
     d="M 23.99,4 C 12.94,4 4,12.95 4,24 4,35.05 12.94,44 23.99,44 35.04,44 44,35.05 44,24 44,12.95 35.04,4 23.99,4 Z m 13.85,12 h -5.9 c -0.65,-2.5 -1.56,-4.9 -2.76,-7.12 3.68,1.26 6.74,3.81 8.66,7.12 z M 24,8.07 c 1.67,2.4 2.97,5.07 3.82,7.93 H 20.18 C 21.03,13.14 22.33,10.47 24,8.07 Z M 8.52,28 C 8.19,26.72 8,25.38 8,24 8,22.62 8.19,21.28 8.52,20 h 6.75 C 15.11,21.31 15,22.64 15,24 c 0,1.36 0.11,2.69 0.28,4 z m 1.63,4 h 5.9 c 0.65,2.5 1.56,4.9 2.76,7.13 C 15.13,37.87 12.07,35.31 10.15,32 Z m 5.9,-16 h -5.9 C 12.07,12.69 15.13,10.13 18.81,8.87 17.61,11.1 16.7,13.5 16.05,16 Z M 24,39.93 C 22.34,37.53 21.04,34.86 20.18,32 h 7.64 C 26.96,34.86 25.66,37.53 24,39.93 Z M 28.68,28 H 19.32 C 19.13,26.69 19,25.36 19,24 c 0,-1.36 0.13,-2.69 0.32,-4 h 9.36 c 0.19,1.31 0.32,2.64 0.32,4 0,1.36 -0.13,2.69 -0.32,4 z m 0.51,11.12 C 30.39,36.89 31.3,34.5 31.95,32 h 5.9 c -1.93,3.31 -4.99,5.86 -8.66,7.12 z M 32.72,28 C 32.88,26.69 33,25.36 33,24 33,22.64 32.89,21.31 32.72,20 h 6.75 c 0.33,1.28 0.53,2.62 0.53,4 0,1.38 -0.19,2.72 -0.53,4 z"
     id="path2" />
  <path
     style="fill:#d8d8d8;fill-opacity:1;stroke:none;stroke-width:0.06;stroke-opacity:1"
     d="M 22.526305,43.920782 C 17.732422,43.516028 13.507871,41.614984 10.115606,38.335979 3.3414099,31.787957 2.0812766,21.419734 7.0837138,13.389943 c 0.8117559,-1.303011 1.913862,-2.652608 3.0876582,-3.7810285 5.530612,-5.316815 13.5727,-6.9917073 20.77491,-4.3267046 1.013181,0.3749031 2.637607,1.1688307 3.535947,1.7281714 4.446966,2.768849 7.61868,7.1072027 8.889738,12.1596187 0.4105,1.631729 0.570342,2.985364 0.570342,4.83 0,1.468075 -0.04644,2.056842 -0.265046,3.36 -0.622696,3.712075 -2.324554,7.2022 -4.900592,10.05 -3.223317,3.563366 -7.649174,5.842894 -12.467449,6.421331 -0.936577,0.112437 -2.947494,0.159987 -3.782917,0.08945 z m 1.961343,-4.66634 c 1.253917,-1.93011 2.270984,-4.01797 3.021481,-6.202573 C 27.691108,32.522151 27.84,32.064278 27.84,32.034373 27.84,32.002442 26.255059,31.98 24,31.98 c -2.255059,0 -3.84,0.02244 -3.84,0.05437 0,0.136258 0.709112,2.098539 1.026769,2.84131 0.415749,0.97214 1.04593,2.24381 1.525571,3.078513 0.386942,0.673383 1.242072,2.004689 1.28766,2.004689 0.0165,0 0.235942,-0.317 0.487648,-0.704443 z M 18.427712,38.295394 C 17.530592,36.504571 16.827521,34.645892 16.169326,32.325 l -0.09784,-0.345 h -2.965743 c -1.631158,0 -2.965742,0.02167 -2.965742,0.04816 0,0.02649 0.18466,0.330239 0.410356,0.675 1.60275,2.448275 3.771786,4.378698 6.339644,5.642227 0.859081,0.422715 1.889037,0.85015 1.938604,0.804525 0.01023,-0.0094 -0.170169,-0.393952 -0.400892,-0.854521 z m 11.569206,0.553219 c 2.52975,-1.023157 4.784649,-2.697814 6.503241,-4.829794 C 36.92063,33.497209 37.86,32.124559 37.86,32.031758 37.86,32.003291 36.524254,31.98 34.891676,31.98 h -2.968324 l -0.09662,0.345 c -0.626233,2.235982 -1.377219,4.219934 -2.277266,6.016073 -0.25942,0.517692 -0.362359,0.778927 -0.306938,0.778927 0.04586,0 0.385338,-0.122124 0.75439,-0.271387 z M 15.3,27.943426 c 0,-0.04212 -0.02615,-0.291866 -0.0581,-0.555 C 14.986523,25.285613 15.001784,22.107284 15.27625,20.235 L 15.31363,19.98 H 11.894634 8.4756424 L 8.3472341,20.595 C 8.057512,21.982598 8.0160977,22.408452 8.0160977,24 c 0,1.591548 0.041414,2.017402 0.3311364,3.405 L 8.4756424,28.02 H 11.887821 C 14.614973,28.02 15.3,28.004627 15.3,27.943426 Z M 28.758283,27.705 c 0.01929,-0.17325 0.0816,-0.72 0.138474,-1.215 0.142029,-1.236208 0.142029,-3.743792 0,-4.98 -0.05687,-0.495 -0.119184,-1.04175 -0.138474,-1.215 L 28.723211,19.98 H 24 19.276789 l -0.03507,0.315 c -0.01929,0.17325 -0.0816,0.72 -0.138474,1.215 -0.142029,1.236208 -0.142029,3.743792 0,4.98 0.05687,0.495 0.119184,1.04175 0.138474,1.215 l 0.03507,0.315 H 24 28.723211 Z m 10.877954,-0.259166 c 0.274067,-1.151288 0.350497,-1.894679 0.35119,-3.415834 6.91e-4,-1.518008 -0.06499,-2.171957 -0.343523,-3.42 L 39.51,20.01 36.105,19.9945 c -2.740806,-0.01247 -3.405,-4.62e-4 -3.405,0.06158 0,0.04239 0.02615,0.292361 0.0581,0.555495 0.257042,2.116523 0.242393,5.015386 -0.036,7.123925 l -0.03769,0.285499 3.411144,-0.0155 3.411145,-0.0155 z M 16.08,15.995618 c 0,-0.01341 0.146239,-0.520066 0.324977,-1.125904 0.523797,-1.775433 1.235756,-3.594147 2.01913,-5.1579128 C 18.652848,9.2551903 18.84,8.8684187 18.84,8.8523089 c 0,-0.070802 -1.070002,0.3694355 -1.95,0.8023007 -2.515933,1.2375704 -4.624637,3.0897044 -6.212495,5.4566084 -0.295628,0.44067 -0.537505,0.82542 -0.537505,0.855 0,0.03099 1.258931,0.05378 2.97,0.05378 1.6335,0 2.97,-0.01097 2.97,-0.02438 z m 11.76,-0.02287 C 27.84,15.856699 27.224896,14.111297 26.915705,13.35 26.494628,12.313212 25.657829,10.63872 25.101674,9.72 24.603625,8.8972664 24.041829,8.0410977 24,8.041066 c -0.0165,-1.25e-5 -0.229312,0.3019141 -0.472915,0.670948 -1.253658,1.899161 -2.322331,4.104164 -3.075515,6.345737 -0.160363,0.477263 -0.29157,0.889013 -0.29157,0.915 0,0.02599 1.728,0.04725 3.84,0.04725 2.112,0 3.84,-0.02126 3.84,-0.04725 z m 10.02,0.0162 c 0,-0.06351 -0.59914,-0.994171 -0.914908,-1.421153 C 35.252161,12.27861 33.078117,10.517659 30.556988,9.3934994 29.848898,9.0777657 29.230527,8.849275 29.191339,8.888887 29.179852,8.9004991 29.383157,9.342 29.64313,9.87 c 0.770612,1.565101 1.587496,3.71183 2.066251,5.43 0.08735,0.3135 0.169632,0.60375 0.182839,0.645 0.01878,0.05867 0.671198,0.075 2.995897,0.075 1.634536,0 2.971883,-0.01397 2.971883,-0.03105 z"
     id="path3" />
</svg>

<?xml version="1.0" encoding="UTF-8" standalone="no"?>
<svg
   height="48"
   viewBox="0 0 48 48"
   width="48"
   version="1.1"
   id="svg2"
   sodipodi:docname="globe_lang_grey.svg"
   inkscape:version="1.4 (e7c3feb100, 2024-10-09)"
   xmlns:inkscape="http://www.inkscape.org/namespaces/inkscape"
   xmlns:sodipodi="http://sodipodi.sourceforge.net/DTD/sodipodi-0.dtd"
   xmlns="http://www.w3.org/2000/svg"
   xmlns:svg="http://www.w3.org/2000/svg">
  <defs
     id="defs2" />
  <sodipodi:namedview
     id="namedview2"
     pagecolor="#ffffff"
     bordercolor="#000000"
     borderopacity="0.25"
     inkscape:showpageshadow="2"
     inkscape:pageopacity="0.0"
     inkscape:pagecheckerboard="0"
     inkscape:deskcolor="#d1d1d1"
     inkscape:zoom="16.666667"
     inkscape:cx="23.97"
     inkscape:cy="24"
     inkscape:window-width="1920"
     inkscape:window-height="1011"
     inkscape:window-x="0"
     inkscape:window-y="0"
     inkscape:window-maximized="1"
     inkscape:current-layer="svg2" />
  <path
     d="M0 0h48v48h-48z"
     fill="none"
     id="path1" />
  <path
     d="M23.99 4c-11.05 0-19.99 8.95-19.99 20s8.94 20 19.99 20c11.05 0 20.01-8.95 20.01-20s-8.96-20-20.01-20zm13.85 12h-5.9c-.65-2.5-1.56-4.9-2.76-7.12 3.68 1.26 6.74 3.81 8.66 7.12zm-13.84-7.93c1.67 2.4 2.97 5.07 3.82 7.93h-7.64c.85-2.86 2.15-5.53 3.82-7.93zm-15.48 19.93c-.33-1.28-.52-2.62-.52-4s.19-2.72.52-4h6.75c-.16 1.31-.27 2.64-.27 4 0 1.36.11 2.69.28 4h-6.76zm1.63 4h5.9c.65 2.5 1.56 4.9 2.76 7.13-3.68-1.26-6.74-3.82-8.66-7.13zm5.9-16h-5.9c1.92-3.31 4.98-5.87 8.66-7.13-1.2 2.23-2.11 4.63-2.76 7.13zm7.95 23.93c-1.66-2.4-2.96-5.07-3.82-7.93h7.64c-.86 2.86-2.16 5.53-3.82 7.93zm4.68-11.93h-9.36c-.19-1.31-.32-2.64-.32-4 0-1.36.13-2.69.32-4h9.36c.19 1.31.32 2.64.32 4 0 1.36-.13 2.69-.32 4zm.51 11.12c1.2-2.23 2.11-4.62 2.76-7.12h5.9c-1.93 3.31-4.99 5.86-8.66 7.12zm3.53-11.12c.16-1.31.28-2.64.28-4 0-1.36-.11-2.69-.28-4h6.75c.33 1.28.53 2.62.53 4s-.19 2.72-.53 4h-6.75z"
     id="path2"
     style="fill:#acacac;fill-opacity:1" />
</svg>
